app/assets/images/my-wallets/symbol_bitcoin.inline.svg

<?xml version="1.0" encoding="UTF-8"?>
<svg width="38px" height="38px" viewBox="0 0 38 38" version="1.1" xmlns="http://www.w3.org/2000/svg" xmlns:xlink="http://www.w3.org/1999/xlink">
    <!-- Generator: Sketch 60 (88103) - https://sketch.com -->
    <title>icon/btc</title>
    <desc>Created with Sketch.</desc>
    <g id="icon/btc" stroke="none" stroke-width="1" fill="none" fill-rule="evenodd">
        <rect id="path-1" fill="#F0F3F5" x="0" y="0" width="38" height="38" rx="8"></rect>
        <path d="M24.1779665,19.3245856 C23.8038445,18.8478949 23.2392887,18.5204707 22.4843331,18.3425133 C23.4457219,17.8593095 23.868215,17.0391957 23.7522192,15.8820383 C23.713441,15.4624289 23.5957504,15.0987652 23.3988762,14.7905128 C23.2018664,14.4821936 22.9360116,14.2343291 22.600295,14.0468192 C22.2648496,13.8590755 21.9000154,13.7161551 21.5066399,13.6176239 C21.1131626,13.5190926 20.6614164,13.447549 20.1517061,13.403093 L20.1517061,11 L18.6614552,11 L18.6614552,13.3363256 C18.4033968,13.3363256 18.0098517,13.3426717 17.480854,13.3553972 L17.480854,11 L15.9903997,11 L15.9903997,13.403093 C15.7774244,13.4094725 15.4645545,13.4127123 15.0516542,13.4127123 L13,13.403093 L13,14.967034 L14.0741643,14.967034 C14.5645194,14.967034 14.8516276,15.1832349 14.935489,15.6154696 L14.935489,18.3523664 C15.0000968,18.3523664 15.0516542,18.3556396 15.0903986,18.3619857 L14.935489,18.3619857 L14.935489,22.1953178 C14.8839315,22.5194689 14.6968536,22.6816947 14.3742212,22.6816947 L13.3001247,22.6816947 L13,24.4268329 L14.9356584,24.4268329 C15.0582641,24.4268329 15.2355797,24.4284361 15.4679442,24.4313086 C15.700173,24.434515 15.8743023,24.4361182 15.9904675,24.4361182 L15.9904675,26.8677686 L17.4811591,26.8677686 L17.4811591,24.464709 C17.7520645,24.4712221 18.1456095,24.4743283 18.6617603,24.4743283 L18.6617603,26.8677686 L20.152045,26.8677686 L20.152045,24.4361182 C20.6812123,24.4107339 21.1505511,24.3633053 21.5600617,24.2931311 C21.9697756,24.2229568 22.3618291,24.1134702 22.7359511,23.96397 C23.1100392,23.8146701 23.4229092,23.6285964 23.6744933,23.4060829 C23.9262129,23.1837697 24.1341037,22.9007346 24.2989112,22.5573783 C24.4631764,22.2140221 24.5681557,21.8166908 24.613171,21.3652174 C24.6974052,20.4817764 24.5521563,19.8014768 24.1779665,19.3245856 Z M17.8921272,15.0668344 C18.1019162,15.0635612 18.2760455,15.0604216 18.4147523,15.0572151 C18.553493,15.0540755 18.7406048,15.0620248 18.9761895,15.0810964 C19.2116725,15.1001681 19.4100381,15.1256526 19.5712865,15.157383 C19.7325349,15.1891134 19.9101216,15.2415854 20.1035044,15.3146989 C20.2972262,15.3877456 20.4519663,15.4767911 20.5679621,15.5816684 C20.6841952,15.6865457 20.7825645,15.820114 20.86307,15.9822396 C20.9438129,16.1443318 20.9841504,16.3302719 20.9841504,16.5400265 C20.9841504,16.7180507 20.9551684,16.8802097 20.8971705,17.0265035 C20.8392743,17.1726972 20.7519554,17.2951097 20.6359597,17.3936409 C20.51993,17.4922055 20.4003411,17.5781114 20.2777354,17.6511581 C20.1552653,17.7242048 19.9986608,17.7830563 19.8083965,17.8275123 C19.6181662,17.872035 19.4520366,17.9070053 19.3101774,17.9323896 C19.1682164,17.9578407 18.990833,17.9753759 18.7778916,17.9848616 C18.5649163,17.9943473 18.4035662,18.000827 18.2939431,18.0039667 C18.1842183,18.0071063 18.0342576,18.0071063 17.8438578,18.0039667 C17.653424,18.000827 17.5422755,17.999157 17.5099377,17.999157 L17.5099377,15.0716107 C17.5550208,15.0716441 17.6824399,15.0700409 17.8921272,15.0668344 Z M21.5795186,21.5655864 C21.5180632,21.7118803 21.4391508,21.8391024 21.3424424,21.947253 C21.2455646,22.0551363 21.1180777,22.1505947 20.9600835,22.2331271 C20.8021231,22.3158933 20.6487389,22.3825272 20.5004731,22.433396 C20.3520039,22.4844652 20.1728917,22.5287208 19.9634078,22.5669977 C19.7534494,22.6051743 19.5696933,22.6320283 19.4114618,22.6480271 C19.2534676,22.6639591 19.0648303,22.6766178 18.8453807,22.6862371 C18.6261005,22.6955893 18.455022,22.7004323 18.3324841,22.7004323 C18.2098784,22.7004323 18.0550026,22.6986955 17.8678908,22.6955893 C17.6806773,22.6926166 17.5614274,22.6910134 17.5097682,22.6910134 L17.5097682,19.4677064 C17.5613257,19.4677064 17.7145743,19.4646002 17.9694803,19.4581205 C18.2244202,19.4517076 18.4323788,19.448735 18.5936949,19.448735 C18.7549772,19.448735 18.9776471,19.4581205 19.2616367,19.4773257 C19.5453552,19.4962638 19.7840923,19.5247543 19.9778141,19.5628976 C20.1712986,19.6011077 20.3824435,19.6598256 20.6116555,19.7393854 C20.8406302,19.8188116 21.0262167,19.9157396 21.1682115,20.0301694 C21.3101724,20.1447996 21.4294562,20.2907928 21.5261985,20.4688504 C21.623178,20.6468078 21.6715491,20.8502832 21.6715491,21.0792096 C21.6715491,21.2574008 21.6409062,21.4192592 21.5795186,21.5655864 Z" id="Shape-Copy" fill="#F5B300" fill-rule="nonzero"></path>
    </g>
</svg>

<svg width="38" height="38" xmlns="http://www.w3.org/2000/svg"><g fill="none" fill-rule="evenodd"><rect fill="#F0F3F5" width="38" height="38" rx="8"/><path d="M24.178 19.325c-.374-.477-.939-.805-1.694-.982.962-.484 1.384-1.304 1.268-2.461a2.407 2.407 0 00-.353-1.091 2.204 2.204 0 00-.799-.744c-.335-.188-.7-.33-1.093-.43a8.747 8.747 0 00-1.355-.214V11h-1.49v2.336c-.259 0-.652.007-1.181.02V11h-1.49v2.403c-.214.006-.526.01-.94.01L13 13.403v1.564h1.074c.49 0 .778.216.861.648v2.737c.065 0 .117.004.155.01h-.155v3.833c-.051.324-.238.487-.56.487H13.3l-.3 1.745h1.936c.122 0 .3.001.532.004.232.004.406.005.522.005v2.432h1.491v-2.403c.271.006.665.01 1.18.01v2.393h1.491v-2.432c.53-.025.999-.073 1.408-.143.41-.07.802-.18 1.176-.329.374-.15.687-.335.938-.558.252-.222.46-.505.625-.849.164-.343.27-.74.314-1.192.084-.883-.06-1.564-.435-2.04zm-6.286-4.258c.21-.003.384-.007.523-.01.138-.003.326.005.561.024.236.02.434.045.595.076.162.032.34.085.533.158s.348.162.464.267c.116.105.215.238.295.4.08.162.121.348.121.558 0 .178-.029.34-.087.487a.917.917 0 01-.261.367 2.646 2.646 0 01-.358.257c-.123.073-.28.132-.47.177-.19.044-.356.079-.498.104-.142.026-.32.043-.532.053a10.56 10.56 0 01-.934.02 37.67 37.67 0 00-.334-.006v-2.927l.382-.005zm3.688 6.499c-.062.146-.14.273-.238.381a1.342 1.342 0 01-.382.286c-.158.083-.311.15-.46.2a3.745 3.745 0 01-.537.134 7.154 7.154 0 01-1.118.12 12.89 12.89 0 01-.977.009 31.688 31.688 0 00-.358-.005v-3.223c.051 0 .205-.003.46-.01a10.486 10.486 0 011.292.02c.283.018.522.047.716.085.193.038.404.097.634.176.229.08.414.177.556.291.142.115.261.26.358.439.097.178.146.381.146.61 0 .178-.031.34-.092.487z" fill="#F5B300" fill-rule="nonzero"/></g></svg>
